public/img/svgs/icons/leaf.svg

<svg width="26" height="24" viewBox="0 0 26 24" fill="none" xmlns="http://www.w3.org/2000/svg">
<path d="M24.738 2.60676C24.7099 2.42977 24.6404 2.26312 24.5359 2.12214C24.4314 1.98116 24.2952 1.87038 24.1398 1.8C23.9844 1.72962 23.8149 1.70189 23.6468 1.71938C23.4787 1.73686 23.3174 1.79898 23.1779 1.90004C20.8773 3.39139 18.2078 4.11306 15.5163 3.97132C9.33679 3.97132 6.7576 6.64837 6.70859 6.71001C5.26321 7.84217 4.21516 9.45499 3.73085 11.2924C3.24654 13.1298 3.35372 15.0865 4.03539 16.8518C4.07197 16.9465 4.08199 17.0505 4.06424 17.1512C4.0465 17.2519 4.00175 17.345 3.93538 17.4193L1.26718 20.4895C1.09502 20.6877 0.999595 20.9476 1 21.2172C1.00041 21.4869 1.09661 21.7465 1.26937 21.944C1.44212 22.1416 1.67869 22.2625 1.93176 22.2827C2.18483 22.3029 2.43573 22.2208 2.63428 22.0528C4.35041 20.396 7.14963 15.4011 15.0192 11.9058C15.2651 11.7991 15.5407 11.8 15.786 11.9083C16.0313 12.0165 16.2264 12.2233 16.3288 12.4837C16.4313 12.7441 16.4328 13.0369 16.3331 13.2985C16.2334 13.5601 16.0404 13.7692 15.7963 13.8803C12.6545 15.2466 9.79125 17.2463 7.36464 19.769L7.35564 19.7796L7.12362 20.0464C7.07256 20.1037 7.03415 20.1723 7.01118 20.2474C6.98821 20.3224 6.98127 20.402 6.99084 20.4802C7.00042 20.5585 7.02628 20.6335 7.06655 20.6998C7.10681 20.7661 7.16047 20.8221 7.22363 20.8636C8.50101 21.7144 9.9784 22.1649 11.486 22.1633C13.5149 22.1254 15.5029 21.5509 17.2704 20.4917V20.4917C26.0401 15.365 25.201 5.50592 24.738 2.60676Z" stroke="#2B2F51" stroke-width="1.5" stroke-linecap="round" stroke-linejoin="round"/>
</svg>

<svg width="26" height="24" fill="none" xmlns="http://www.w3.org/2000/svg"><path d="M24.738 2.607a1.105 1.105 0 00-.202-.485 1.016 1.016 0 00-.396-.322.954.954 0 00-.962.1 12.824 12.824 0 01-7.662 2.071c-6.18 0-8.758 2.677-8.807 2.739-1.446 1.132-2.494 2.745-2.978 4.582a9.065 9.065 0 00.304 5.56.562.562 0 01-.1.567l-2.668 3.07a1.108 1.108 0 00-.267.728c0 .27.097.53.27.727a.98.98 0 00.662.339.967.967 0 00.702-.23C4.35 20.396 7.15 15.4 15.02 11.906a.952.952 0 01.767.002c.245.109.44.315.543.576.102.26.104.553.004.815-.1.261-.293.47-.537.581a26.224 26.224 0 00-8.431 5.889l-.01.01-.231.267a.563.563 0 00-.057.653c.04.067.093.123.157.165a7.666 7.666 0 004.262 1.3 11.666 11.666 0 005.784-1.672v0c8.77-5.127 7.931-14.986 7.468-17.885z" stroke="#2B2F51" stroke-width="1.5" stroke-linecap="round" stroke-linejoin="round"/></svg>
